packages/foundations/assets/icons/functional/images/file/folder_open_16.svg

<svg width="16" height="16" viewBox="0 0 16 16" fill="none" xmlns="http://www.w3.org/2000/svg">
<g clip-path="url(#clip0_185_949)">
<path fill-rule="evenodd" clip-rule="evenodd" d="M7.24276 3.19991C7.42393 3.19991 7.59832 3.19991 7.81902 3.445C8.12746 3.76214 8.43389 4.08044 8.73832 4.39991H11.9983C12.8418 4.39991 13.5983 5.07965 13.5983 5.99991C13.5996 6.3999 13.5996 6.7999 13.5983 7.19991C14.0716 7.19991 14.4953 7.61812 14.3828 8.1568C14.1607 9.27593 13.9369 10.3949 13.7114 11.5137C13.5701 12.22 12.9265 12.7999 12.1425 12.7999C9.37976 12.8015 6.61699 12.8015 3.85416 12.7999C3.13384 12.7999 2.39832 12.2374 2.28523 11.5137C2.05986 10.3949 1.83607 9.27596 1.61385 8.1568C1.52103 7.69271 1.87099 7.19991 2.39832 7.19991C2.39832 6.42907 2.39832 5.62907 2.39832 4.79991C2.39832 3.95642 3.09349 3.19991 3.99832 3.19991C5.07975 3.1985 6.16123 3.1985 7.24276 3.19991ZM12.6223 8.79991H3.37352L3.85416 11.1999H12.1425L12.6223 8.79991ZM6.90312 4.79991H3.99832L3.99804 7.19991H11.998L11.9983 5.99991H8.39832C8.21714 5.99991 7.99792 5.93536 7.82206 5.75482C7.51286 5.43679 7.20655 5.11848 6.90312 4.79991Z" fill="#1A1C1F"/>
</g>
<defs>
<clipPath id="clip0_185_949">
<rect width="16" height="16" fill="white"/>
</clipPath>
</defs>
</svg>

<svg xmlns="http://www.w3.org/2000/svg" width="16" height="16" fill="none"><g clip-path="url(#a)"><path fill="#1A1C1F" fill-rule="evenodd" d="M7.243 3.2c.18 0 .355 0 .576.245q.462.475.92.955h3.26c.843 0 1.6.68 1.6 1.6v1.2c.473 0 .896.418.784.957q-.333 1.678-.672 3.357a1.62 1.62 0 0 1-1.569 1.286q-4.143.003-8.288 0c-.72 0-1.456-.563-1.569-1.286q-.338-1.68-.671-3.357a.804.804 0 0 1 .784-.957V4.8c0-.844.695-1.6 1.6-1.6q1.623-.003 3.245 0m5.38 5.6h-9.25l.481 2.4h8.289zm-5.72-4H3.998v2.4h8V6h-3.6a.8.8 0 0 1-.576-.245q-.464-.477-.919-.955" clip-rule="evenodd"/></g><defs><clipPath id="a"><path fill="#fff" d="M0 0h16v16H0z"/></clipPath></defs></svg>
